X:29
T:Allemaigne 1
C:Tielman Susato
S:Susato1551
Z:Transcribed by Frank Nordberg - <A  HREF="http://www.musicaviva.com">http://www.musicaviva.com
%<A  HREF="http://www.musicaviva.com/abc/tunes/susato-tielman/susato-allemande-01.abc">http://www.musicaviva.com/abc/tunes/susato-tielman/susato-allemande-01.abc
V:1 Program 1 110 %Fiddle
V:2 Program 1 40 %Violin
V:3 Program 1 41 alto %Viola
V:4 Program 1 42 bass %Cello
R:Allemande
M:C
L:1/4
K:C
V:1
C/B,/C/D/CD|E2EG|F2E2|D2C2|
V:2
G,2B,|C2CD|D2C2|B,2A,2|
V:3
C,2E,F,|G,2G,_B,|_B,2G,2|G,>F,E,C,|
V:4
C,2A,,D,|C,2C,G,,|_B,,2C,2|G,,2A,,2|
%
V:1
D/C/D/E/FD|E2E2::E/D/E/F/EF|G2FE|
V:2
B,>CDA,|C2C2::C2CA,|CBA,C|
V:3
G,2A,F,|G,2G,2::G,2G,F,|E,D,F,G,|
V:4
G,,2D,D,|C,2C,2::C,2C,D,|C,G,,D,C,|
%
V:1
D/C/D/E/FD|E2E2::E>F E/D/C/B,/|A,2G,2|
V:2
DG,A,>B,|C2C2::C2C2|C2CG,|
V:3
_B,2A,F,|G,2G,2::G,2G,E,|F,2E,2|
V:4
G,,2D,D,|C,2C,2::C,2C,C,|F,,2C,>B,,|
%
V:1
CDEC|D2DC|B,/C/D/C/ B,/A,/C/B,/|C2C2:|
V:2
A,B,C2|_B,2B,F,|G,A,G,2|E,2E,2:|
V:3
E,F,G,A,|F,2G,C,|D,/E,/F,/E,/ D,/C,/D,|C,2C,2:|
V:4
A,D,C,A,,|_B,,2G,,A,,|G,,F,,G,,2|C,2C,2:|
